X: 31218
T: Paddy Fahey's
R: jig
M: 6/8
K: Gmajor
G,B,D GBd|g2g dBG|DFA c2d|BAG FDB,|
G,B,D GBd|g2g dBG|DFA cBA|1 AGF G3:|2 AGF GBd||
|:g2g dBG|DFA cBA|GBd g2g|f/g/af def|
g2a bag|f/g/af def|gfd cAF|AGF G3:|

